icons/line/speakerphone.svg

<svg width="24" height="24" viewBox="0 0 24 24" fill="none" xmlns="http://www.w3.org/2000/svg">
<path d="M13 15V7M13 15L18.5039 18.1451C19.1705 18.526 20 18.0446 20 17.2768V14V8V4.72318C20 3.95536 19.1705 3.47399 18.5039 3.85494L13 7M13 15H10M13 7H7C4.79086 7 3 8.79086 3 11V11C3 13.2091 4.79086 15 7 15V15M7 15V19.5C7 20.3284 7.67157 21 8.5 21V21C9.32843 21 10 20.3284 10 19.5V15M7 15H10" stroke="currentColor" stroke-width="2" stroke-linecap="round" stroke-linejoin="round"/>
</svg>

<svg width="24" height="24" fill="none" xmlns="http://www.w3.org/2000/svg"><path d="M13 15V7m0 8l5.504 3.145A1 1 0 0020 17.277V4.723a1 1 0 00-1.496-.868L13 7m0 8h-3m3-8H7a4 4 0 00-4 4v0a4 4 0 004 4v0m0 0v4.5A1.5 1.5 0 008.5 21v0a1.5 1.5 0 001.5-1.5V15m-3 0h3" stroke="currentColor" stroke-width="2" stroke-linecap="round" stroke-linejoin="round"/></svg>
